!!!!SEGMENT: pl-wtm--r-1690--007_stefani-jozef--oj-zoneczka-no-6.krn
!!!cenid: 18xx:2313
!!!COM: Stefani, Józef
!!!COM-rismID: pe30024097
!!!CDT: 1800/04/16-1876/03/19
!!!CNT: Polish
!!!OPR: Oj żoneczka
!!!OTL: No. 6
!!!OMV: 007
!!!PDT:
!!!AGN: Secular
!!!SMS-siglum: PL-Wtm
!!!SMS-shelfmark: R 1690
!!!SMS-shelfwork: 001-007 M
!!!SMS-variant:
!!!SMS-altvar:
!!!NIFC-rismSourceID: 1001114714
!!!NIFC-islandoraID: pl-wtm:28053
!!!URL-pdf-islandora: https://repozytorium.nifc.pl/islandora/object/pl-wtm%3A28053/datastream/PDF/view
!!!URL-scan: https://polish.musicsources.pl/pl/lokalizacje/galeria/rekopisy/6430 @EN{Scan on Polish Music Herritage in Open Access Website} @PL{Skany w portalu Dziedzictwo Muzyki Polskiej w otwartym dostępie}
!!!ONB-nifc: UWAGA: skan 0011
!!!AIN: 1 viola 3 violn 1 vox
!!!key:
**kern	**dynam	**kern	**dynam	**kern	**dynam	**kern	**dynam	**kern	**text
*part5	*part5	*part4	*part4	*part3	*part3	*part2	*part2	*part1	*part1
*staff5	*	*staff4	*	*staff3	*	*staff2	*	*staff1	*staff1
*Ivioln	*	*Iviola	*	*Ivioln	*	*Ivioln	*	*Ivox	*
*I"V: C: C: B:	*	*I"Viola	*	*I"V II	*	*I"V I	*	*I"Spiew.	*
*I'V: C: C: B:	*	*I'Viola	*	*I'V II	*	*I'V I	*	*I'Spiew	*
*clefF4	*	*clefC3	*	*clefG2	*	*clefG2	*	*clefG2	*
*k[b-]	*	*k[b-]	*	*k[b-]	*	*k[b-]	*	*k[b-]	*
*d:	*	*d:	*	*d:	*	*d:	*	*d:	*
*M3/8	*	*M3/8	*	*M3/8	*	*M3/8	*	*M3/8	*
=1	=1	=1	=1	=1	=1	=1	=1	=1	=1
!	!	!	!	!	!	!	!	!LO:TX:a:t=No 6.	!
!	!	!	!	!	!	!	!	!LO:TX:a:t=Allo	!
8D\L	p	8A/L	p	8d/L	p	8f/L	p	4.r	.
8D\	.	8A/	.	8d/	.	8f/	.	.	.
8D\J	.	8A/J	.	8d/J	.	8f/J	.	.	.
=2	=2	=2	=2	=2	=2	=2	=2	=2	=2
!	!	!	!	!	!	!	!	!LO:TX:a:t=Wincenty.	!
*rep	*	*rep	*	*rep	*	*rep	*	*	*
8D\L	.	8A/L	.	8d/L	.	8f/L	.	8r	.
8D\	.	8A/	.	8d/	.	8f/	.	8a/	Do
8D\J	.	8A/J	.	8d/J	.	8f/J	.	8a/	o-
*Xrep	*	*Xrep	*	*Xrep	*	*Xrep	*	*	*
=3	=3	=3	=3	=3	=3	=3	=3	=3	=3
*rep	*	*rep	*	*rep	*	*rep	*	*	*
8D\L	.	8A/L	.	8d/L	.	8f/L	.	8a/	-stat-
8D\	.	8A/	.	8d/	.	8f/	.	8f/	-niéj
8D\J	.	8A/J	.	8d/J	.	8f/J	.	8f/	mię
*Xrep	*	*Xrep	*	*Xrep	*	*Xrep	*	*	*
!!LO:LB:g=original
=4	=4	=4	=4	=4	=4	=4	=4	=4	=4
*rep	*	*rep	*	*rep	*	*rep	*	*	*
8D\L	.	8A/L	.	8d/L	.	8f/L	.	4f/	dziś
8D\	.	8A/	.	8d/	.	8f/	.	.	.
8D\J	.	8A/J	.	8d/J	.	8f/J	.	8dd\	przy-
*Xrep	*	*Xrep	*	*Xrep	*	*Xrep	*	*	*
=5	=5	=5	=5	=5	=5	=5	=5	=5	=5
*rep	*	*tremolo	*	*rep	*	*	*	*	*
8D\L	.	8G/L	.	8d/L	.	8b-/L	.	8dd\	-wio-
8D\	.	8G/	.	8d/	.	8b-/	.	8cc\	-dłaś
8D\J	.	8G/J	.	8d/J	.	8b-/J	.	8b-\	roz-
*Xrep	*	*Xtremolo	*	*Xrep	*	*	*	*	*
=6	=6	=6	=6	=6	=6	=6	=6	=6	=6
*rep	*	*	*	*rep	*	*	*	*	*
8D\L	.	8G/L	.	8d/L	.	8b-/L	.	8b-/	-pa-
8D\	.	8F/	.	8d/	.	8a/	.	8a/	-czy
!	!	!	!	!	!	!	!	!LO:TX:t=55	!
8D\J	.	8F/J	.	8d/J	.	8a/J	.	8r	.
*Xrep	*	*	*	*Xrep	*	*	*	*	*
=7	=7	=7	=7	=7	=7	=7	=7	=7	=7
*tremolo	*	*	*	*	*	*	*	*	*
8C#X/L	.	8A/L	.	8e/L	.	8a/L	.	8a/	Idź
8C#/	.	8A/	.	8e/	.	8a/	.	8a/	za
8C#/J	.	8A/J	.	8e/J	.	8a/J	.	8a/	sta-
=8	=8	=8	=8	=8	=8	=8	=8	=8	=8
*	*	*rep	*	*	*	*	*	*	*
8D/L	.	8A/L	.	8f/L	.	8a/L	.	8a/	-re-
8D/	.	8A/	.	8e/	.	8g/	.	8g/	-go
8D/J	.	8A/J	.	8d/J	.	8f/J	.	8f/	two-
*Xtremolo	*	*Xrep	*	*	*	*	*	*	*
=9	=9	=9	=9	=9	=9	=9	=9	=9	=9
8GG/L	.	8B-/L	.	8d/L	.	8e/L	.	8e/	-je-
8AA/	.	8A/	.	8d/	.	8f/	.	8f/	-go
8BB-/J	.	8G/J	.	8d/J	.	8g/J	.	8g/	bez-
=10	=10	=10	=10	=10	=10	=10	=10	=10	=10
*tremolo	*	*	*	*	*	*	*	*	*
8AA/L	.	8A/L	.	8c#X/L	.	8a/L	.	8a/	-żeń-
8AA/	.	8A/	.	8c#/	.	8a/	.	16a/	-ca
.	.	.	.	.	.	.	.	16r	.
8AA/J	.	8A/J	.	8c#/J	.	8a/J	.	8a/	Po-
=11	=11	=11	=11	=11	=11	=11	=11	=11	=11
*	*	*rep	*	*tremolo	*	*tremolo	*	*	*
8D\L	.	8A/L	.	8d/L	.	8f/L	.	8a/	-cie-
8D\	.	8A/	.	8d/	.	8f/	.	8f/	-szaj
8D\J	.	8A/J	.	8d/J	.	8f/J	.	8f/	się
*	*	*Xrep	*	*	*	*	*	*	*
=12	=12	=12	=12	=12	=12	=12	=12	=12	=12
*rep	*	*rep	*	*rep	*	*rep	*	*	*
8D\L	.	8A/L	.	8d/L	.	8f/L	.	8f/	szczę-
8D\	.	8A/	.	8d/	.	8f/	.	8f/	-ściem
8D\J	.	8A/J	.	8d/J	.	8f/J	.	16dd\	któ-
.	.	.	.	.	.	.	.	16dd\	-rym
*Xrep	*	*Xrep	*	*Xrep	*	*Xrep	*	*	*
=13	=13	=13	=13	=13	=13	=13	=13	=13	=13
*	*	*	*	*rep	*	*	*	*	*
8D\L	.	8G/L	.	8d/L	.	8b-\L	.	8dd\L	cię
8D\	.	8G/	.	8d/	.	8b-\	.	8cc\J	.
!	!	!	!	!	!	!	!	!LO:TX:t=56	!
8D\J	.	8G/J	.	8d/J	.	8b-\J	.	8b-\	u-
*	*	*	*	*Xrep	*	*Xtremolo	*	*	*
=14	=14	=14	=14	=14	=14	=14	=14	=14	=14
*	*	*	*	*rep	*	*	*	*	*
8D\L	.	8G/L	.	8d/L	.	8b-/L	.	8b-/	-ra-
8D\	.	8F/	.	8d/	.	8a/	.	8a/	-czy
8D\J	.	8F/J	.	8d/J	.	8a/J	.	8r	.
*	*	*	*	*Xrep	*	*	*	*	*
=15	=15	=15	=15	=15	=15	=15	=15	=15	=15
8C/L	.	8F/L	.	8f/L	.	8a/L	.	8a/	Żal
8C/	.	8G/	.	8f/	.	8b-/	.	8b-/	nie
8C/J	.	8G#X/J	.	8f/J	.	8bn/J	.	8bn/	raz
=16	=16	=16	=16	=16	=16	=16	=16	=16	=16
*	*	*	*	*rep	*	*	*	*	*
8C/L	.	8A/L	.	8f/L	.	8cc\L	.	8cc/	bę-
8C/	.	8A/	.	8f/	.	8cc\	.	8cc/	-dzie
8C/J	.	8F/J	.	8f/J	.	8a\J	.	8a/	ta-
*	*	*	*	*Xrep	*	*	*	*	*
!!LO:LB:g=original
=17	=17	=17	=17	=17	=17	=17	=17	=17	=17
8C/L	.	8B-/L	.	8e/L	.	8g/L	.	8g/	-kie-
8C/	.	8c/	.	8e/	.	8a/	.	8g/	-go
8C/J	.	8B-/J	.	8e/J	.	8g/J	.	8g/	mło-
*	*	*	*	*Xtremolo	*	*	*	*	*
=18	=18	=18	=18	=18	=18	=18	=18	=18	=18
8F\L	.	8B-/L	.	8e/L	.	8g/L	.	8g/	-dzień-
8F\	.	8A/	.	8f/	.	8f/	.	16f/	-ca
.	.	.	.	.	.	.	.	16r	.
8F\J	.	8c/J	.	8f/J	.	8a/J	.	8a/	Lecz
=19	=19	=19	=19	=19	=19	=19	=19	=19	=19
*rep	*	*	*	*tremolo	*	*	*	*	*
8F\L	.	8c\L	.	8f/L	.	8a/L	.	8a/L	gdym
8F\	.	8d\	.	8f/	.	8b-/	.	8b-/J	.
8F\J	.	8c\J	.	8f/J	.	8a/J	.	8a/	na-
*Xrep	*	*	*	*Xtremolo	*	*	*	*	*
=20	=20	=20	=20	=20	=20	=20	=20	=20	=20
*	*	*tremolo	*	*	*	*	*	*	*
8C/L	.	8c\L	.	8f/L	.	8a/L	.	8a/	-sy-
8C/	.	8c\	.	8e/	.	8g/	.	8g/	-con
!	!	!	!	!	!	!	!	!LO:TX:t=7	!
8C/J	.	8c\J	.	8e/J	.	8g/J	.	8g/	tro-
=21	=21	=21	=21	=21	=21	=21	=21	=21	=21
*rep	*	*rep	*	*	*	*	*	*	*
8C/L	.	8c\L	.	8e/L	.	8g/L	.	8g/	-ska-
8C/	.	8c\	.	8f/	.	8a/	.	8a/	-mi
8C/J	.	8c\J	.	8g/J	.	8b-/J	.	8b-/	bez
*Xrep	*	*Xrep	*	*	*	*	*	*	*
=22	=22	=22	=22	=22	=22	=22	=22	=22	=22
*	*	*rep	*	*	*	*	*	*	*
8F\L	.	8c\L	.	8a/L	.	8cc/L	.	8cc/	li-
8F\	.	8c\	.	8f/	.	8a/	.	8a/	-ku
8F\J	.	8c\J	.	8f/J	.	8a/J	.	8r	.
*	*	*Xrep	*	*	*	*	*	*	*
*	*	*Xtremolo	*	*	*	*	*	*	*
=23	=23	=23	=23	=23	=23	=23	=23	=23	=23
*	*	*	*	*tremolo	*	*	*	*	*
8F\L	.	8c\L	.	8f/L	.	8a/L	.	8a/	Wkrót-
8F\	.	8d\	.	8f/	.	8b-/	.	8b-/	-ce
8F\J	.	8c\J	.	8f/J	.	8a/J	.	8a/	w gro-
*	*	*	*	*Xtremolo	*	*	*	*	*
=24	=24	=24	=24	=24	=24	=24	=24	=24	=24
*	*	*tremolo	*	*	*	*	*	*	*
8BB-/L	.	8B-/L	.	8b-/L	.	8dd\L	.	8dd\	-bo-
8BB-/	.	8B-/	.	8a/	.	8cc\	.	8cc\	-wej
8BB-/J	.	8B-/J	.	8g/J	.	8b-\J	.	8b-\	mój
*Xtremolo	*	*Xtremolo	*	*	*	*	*	*	*
=25	=25	=25	=25	=25	=25	=25	=25	=25	=25
8GG/L	.	8G/L	.	8f/L	.	8a/L	.	8a/	jęk
8GG/	.	8G/	.	8e/	.	8g/	.	8g/	za-
8GG#X/J	.	8G#X/J	.	8d/J	.	8f/J	.	8f/	-wrę
=26	=26	=26	=26	=26	=26	=26	=26	=26	=26
*tremolo	*	*tremolo	*	*tremolo	*	*	*	*	*
8AA/L	.	8A/L	.	8c#X/L	.	8e/L	.	8e/	ci-
8AA/	.	8A/	.	8c#/	.	8e/	.	16e/	-szy
.	.	.	.	.	.	.	.	16r	.
8AA/J	.	8A/J	.	8c#/J	.	8a/J	.	8a/	Gdy
*	*	*Xtremolo	*	*Xtremolo	*	*	*	*	*
=27	=27	=27	=27	=27	=27	=27	=27	=27	=27
8D\L	.	8F/L	.	8d/L	.	8a/L	.	4a/	sro-
8D\	.	8F/	.	8d/	.	8a/	.	.	.
!	!	!	!	!	!	!	!	!LO:TX:t=58	!
8D\J	.	8A/J	.	8d/J	.	8f/J	.	8f/	-gość
=28	=28	=28	=28	=28	=28	=28	=28	=28	=28
*rep	*	*tremolo	*	*rep	*	*tremolo	*	*	*
8D\L	.	8A/L	.	8d/L	.	8f/L	.	4f/	wzbra-
8D\	.	8A/	.	8d/	.	8f/	.	.	.
8D\J	.	8A/J	.	8d/J	.	8f/J	.	8dd\	-nia
*Xrep	*	*	*	*Xrep	*	*	*	*	*
!!LO:PB:g=original
=29	=29	=29	=29	=29	=29	=29	=29	=29	=29
*rep	*	*	*	*rep	*	*	*	*	*
8D\L	.	8G/L	.	8d/L	.	8b-\L	.	16dd\	ku-
.	.	.	.	.	.	.	.	16dd\	-pić
8D\	.	8G/	.	8d/	.	8b-\	.	8cc\	ar-
8D\J	.	8G/J	.	8d/J	.	8b-\J	.	8b-\	-sze-
*Xrep	*	*Xtremolo	*	*Xrep	*	*Xtremolo	*	*	*
=30	=30	=30	=30	=30	=30	=30	=30	=30	=30
*rep	*	*	*	*rep	*	*	*	*	*
8D\L	.	8G/L	.	8d/L	.	8b-/L	.	8b-/	-ni-
8D\	.	8F/	.	8d/	.	8a/	.	16a/	-ku
.	.	.	.	.	.	.	.	16r	.
8D\J	.	8F/J	.	8d/J	.	8a/J	.	8a/	Do-
*Xrep	*	*	*	*Xrep	*	*	*	*	*
=31	=31	=31	=31	=31	=31	=31	=31	=31	=31
*	*	*tremolo	*	*rep	*	*	*	*	*
8AA/L	.	8F/L	.	8d/L	.	8dd\L	.	8dd\	-sta-
8AA/	.	8F/	.	8d/	.	8a\	.	8a/	-nie
8AA/J	.	8F/J	.	8d/J	.	8a\J	.	8a/	Do-
*	*	*	*	*Xrep	*	*	*	*	*
=32	=32	=32	=32	=32	=32	=32	=32	=32	=32
*rep	*	*rep	*	*rep	*	*	*	*	*
8AA/L	.	8F/L	.	8d/L	.	8dd\L	.	4dd\	-sta-
8AA/	.	8F/	.	8d/	.	8dd\	.	.	.
!	!	!	!	!	!	!	!	!LO:TX:t=59	!
8AA/J	.	8F/J	.	8d/J	.	8a\J	.	8a/	-nie
*Xrep	*	*Xrep	*	*Xrep	*	*	*	*	*
*	*	*Xtremolo	*	*	*	*	*	*	*
=33	=33	=33	=33	=33	=33	=33	=33	=33	=33
*rep	*	*	*	*rep	*	*	*	*	*
8AA/L	.	8F/L	.	8d/L	.	8a/L	.	8a/	prze-
8AA/	.	8F/	.	8d/	.	8a/	.	8a/	-cie
8AA/J	.	8E/J	.	8d/J	.	8g/J	.	8g/	tru-
*Xrep	*	*	*	*Xrep	*	*	*	*	*
=34	=34	=34	=34	=34	=34	=34	=34	=34	=34
*rep	*	*	*	*	*	*	*	*	*
8AA/L	.	8D/L	.	8d/L	.	8f/L	.	8f/	-ci-
8AA/	.	8A/	.	8e/	.	8g/	.	8g/	-zny
8AA/J	.	8A/J	.	8c#X/J	.	8e/J	.	8e/	na
*Xrep	*	*	*	*	*	*	*	*	*
=35	=35	=35	=35	=35	=35	=35	=35	=35	=35
*	*	*tremolo	*	*tremolo	*	*tremolo	*	*	*
8D\L	.	8G/L	.	8c#X/L	.	8e/L	.	4.e/	my-
8D\	.	8G/	.	8c#/	.	8e/	.	.	.
8D\J	.	8G/J	.	8c#/J	.	8e/J	.	.	.
*	*	*Xtremolo	*	*	*	*Xtremolo	*	*	*
=36	=36	=36	=36	=36	=36	=36	=36	=36	=36
*rep	*	*	*	*	*	*	*	*	*
8D\L	.	8F/L	.	8d/L	.	8d/L	.	8d/	-szy.
8D\	.	8A/	.	8d/	.	8f/	.	8r	.
8D\J	.	8A/J	.	8d/J	.	8f/J	.	8r	.
*Xrep	*	*	*	*	*	*	*	*	*
=37	=37	=37	=37	=37	=37	=37	=37	=37	=37
*rep	*	*tremolo	*	*rep	*	*	*	*	*
8D\L	.	8A/L	.	8d/L	.	8f/L	.	4.r	.
8D\	.	8A/	.	8d/	.	8f/	.	.	.
8D\J	.	8A/J	.	8d/J	.	8f/J	.	.	.
*Xrep	*	*Xtremolo	*	*Xrep	*	*	*	*	*
=38	=38	=38	=38	=38	=38	=38	=38	=38	=38
!	!	!	!	!	!	!	!	!LO:TX:t=60	!
8D\	.	8A/	.	8d/	.	8f/	.	4.r	.
8r	.	8r	.	8r	.	8r	.	.	.
8r	.	8r	.	8r	.	8r	.	.	.
==	==	==	==	==	==	==	==	==	==
*-	*-	*-	*-	*-	*-	*-	*-	*-	*-
!!!system-decoration: (*)
!!!RDF**kern: > = above
!!!RDF**kern: < = below
!!!ENC: Marcin Jachim
!!!END: 2021-06-02
